X:1
T:Title
%%score { 1 | 2 }
L:1/8
M:4/4
K:Bb
V:1 treble nm="Grand Piano"
V:2 bass 
V:1
 z4 z2[Q:1/4=100] [B,D][CE] | [DF][DF] [DF]>[DF] [EG][DF][DF][DF] | %2
 [EG][GB] [FA]>[EG] [DF]2 [DF][DF] | GG G>[EA] [DB][B,FB][CFA][DFB] | %4
[M:9/8] [=Ed][Ec][Ec]- [Ec]/G/ c2- cD[C_E] |[M:4/4] [DF][DF] [DF]>[DF] [EG][DF][DF][DF] | %6
 [EG][GB] [FA]>[EG] [DF]2 [DF][DF] | [EG][FA] [GB]>[EG] [EG][DF][FB][Fc] |[M:7/8] ddc>A [DB]3 | %9
[M:1/4] [DB][DB] |[M:4/4] c>c cc c<A GF | B<B B>G [DB]2 [DB][DB] | c>c cc c<A Ac | %13
[M:17/16] [=EB]>[EB][CFA][B,CG][A,CF]/-[A,CF]-<[A,CF][B,D][B,C_E] | %14
[M:4/4] [DF]<[DF] [DF][EG] [DF]<[DFB] [DFB][DFB] | [EGB]>[E^FA] [EGB][B,EG] [B,D=F]2 [B,DF][B,DF] | %16
 [B,EG]<[CEA] [FB][EGc] [DFB]2 [A,CEA]2 |[M:3/4] [B,DB]6 |] %18
V:2
 z4 z2 [B,,F,][B,,F,] | [B,,B,][B,,B,] [B,,B,]>[B,,B,] [B,,B,][B,,B,][B,,B,][B,,B,] | %2
 [E,B,][E,B,] [E,B,]>[E,B,] [B,,B,]2 [B,,B,][B,,B,] | %3
 [E,B,E][E,B,E] [E,B,E]>[C,F,] [B,,F,]D,C,B,, | %4
[M:9/8] [C,B,][C,A,][C,G,]- [C,G,]/[=E,B,]/ [F,A,F]2- [F,A,F][B,,F,B,][B,,F,] | %5
[M:4/4] [B,,B,][B,,B,] [B,,B,]>[B,,B,] [B,,B,][B,,B,][B,,B,][B,,B,] | %6
 [E,B,][E,B,] [E,B,]>[E,B,] [B,,B,]2 [B,,B,][B,,B,] | %7
 [E,B,][E,B,] [E,E]>[E,B,] [B,,B,][B,,B,][D,B,][E,B,] | %8
[M:7/8] [F,B,F][F,B,F][F,A,E]>[F,E] [B,,F,]3 |[M:1/4] [B,,F,][B,,F,] | %10
[M:4/4] [F,A,E]>[F,A,E] [F,A,E][F,A,E] [F,A,E]<[F,CE][K:treble] [G,CE][A,CE] | %11
 [B,D]<[B,DF] [G,E]>[K:bass][E,B,E] [B,,B,]2 [B,,F,][B,,F,] | %12
 [F,A,E]>[F,A,E] [F,A,E][F,A,E] [F,A,E]<[F,CE] [F,CE][F,CE] | %13
[M:17/16] [C,G,]>[C,G,]C,=E,F,_E,3/2D,C, | %14
[M:4/4] [B,,B,]<[B,,B,] [B,,B,][B,,B,] [B,,B,]<B,, B,,B,, | E,>E, E,E, B,,2 B,,B,, | %16
 E,<C, D,E, F,2 F,,2 |[M:3/4] B,,6 |] %18

